outputs/icons/maps/bus_sharp.svg

<svg xmlns="http://www.w3.org/2000/svg" width="1200" height="1200" fill="none"><g clip-path="url(#a)"><path fill="#000" d="M200 800c0 44 19.5 83.5 50 111v139h150V950h400v100h150V911c30.5-27.5 50-67 50-111V300c0-175-179-200-400-200s-400 25-400 200zm175 50c-41.5 0-75-33.5-75-75s33.5-75 75-75 75 33.5 75 75-33.5 75-75 75m450 0c-41.5 0-75-33.5-75-75s33.5-75 75-75 75 33.5 75 75-33.5 75-75 75m75-300H300V300h600z"/></g><defs><clipPath id="a"><path fill="#fff" d="M0 0h1200v1200H0z"/></clipPath></defs></svg>

<svg width="1200" height="1200" viewBox="0 0 1200 1200" fill="none" xmlns="http://www.w3.org/2000/svg"><g clip-path="url(#clip0_124_949)"><path d="M200 800C200 844 219.5 883.5 250 911V1050H400V950H800V1050H950V911C980.5 883.5 1000 844 1000 800V300C1000 125 821 100 600 100C379 100 200 125 200 300V800ZM375 850C333.5 850 300 816.5 300 775C300 733.5 333.5 700 375 700C416.5 700 450 733.5 450 775C450 816.5 416.5 850 375 850ZM825 850C783.5 850 750 816.5 750 775C750 733.5 783.5 700 825 700C866.5 700 900 733.5 900 775C900 816.5 866.5 850 825 850ZM900 550H300V300H900V550Z" fill="#1D1E23"/></g><defs><clipPath id="clip0_124_949"><path width="24" fill="white" d="M0 0H1200V1200H0V0z"/></clipPath></defs></svg>
